src/components/common/icons/bars.svg

<?xml version="1.0" encoding="UTF-8"?>
<svg width="40px" height="30px" viewBox="0 0 40 30" version="1.1" xmlns="http://www.w3.org/2000/svg" xmlns:xlink="http://www.w3.org/1999/xlink">
    <!-- Generator: Sketch 52.5 (67469) - http://www.bohemiancoding.com/sketch -->
    <title>Icons/.bars</title>
    <desc>Created with Sketch.</desc>
    <g id="Vapaaehtoisalusta-Layouts" stroke="none" stroke-width="1" fill="none" fill-rule="evenodd">
        <g id="HKI-Ikonit" transform="translate(-555.000000, -1033.000000)" fill="#000000">
            <g id="Icons/.bars" transform="translate(555.000000, 1033.000000)">
                <g id="bars">
                    <path d="M0.023655914,0.0258823529 L39.9774194,0.0258823529 L39.9774194,4.77098039 L0.023655914,4.77098039 L0.023655914,0.0258823529 Z M0.023655914,25.0702941 L39.9774194,25.0702941 L39.9774194,29.8153922 L0.023655914,29.8153922 L0.023655914,25.0702941 Z M0.023655914,12.5486275 L39.9774194,12.5486275 L39.9774194,17.2937255 L0.023655914,17.2937255 L0.023655914,12.5486275 Z" id="Shape" fill-rule="nonzero"></path>
                </g>
            </g>
        </g>
    </g>
</svg>

<svg height="30" viewBox="0 0 40 30" width="40" xmlns="http://www.w3.org/2000/svg"><path d="m.02365591.02588235h39.95376349v4.74509804h-39.95376349zm0 25.04441175h39.95376349v4.7450981h-39.95376349zm0-12.5216666h39.95376349v4.745098h-39.95376349z"/></svg>
